svg/emoji_u1f9b7.svg

<?xml version="1.0" encoding="UTF-8" standalone="no"?>
<svg
   xmlns:dc="http://purl.org/dc/elements/1.1/"
   xmlns:cc="http://creativecommons.org/ns#"
   xmlns:rdf="http://www.w3.org/1999/02/22-rdf-syntax-ns#"
   xmlns:svg="http://www.w3.org/2000/svg"
   xmlns="http://www.w3.org/2000/svg"
   xmlns:sodipodi="http://sodipodi.sourceforge.net/DTD/sodipodi-0.dtd"
   xmlns:inkscape="http://www.inkscape.org/namespaces/inkscape"
   width="128"
   height="128"
   style="enable-background:new 0 0 128 128;"
   version="1.1"
   id="svg2295"
   sodipodi:docname="emoji_u1f9b7.svg"
   inkscape:version="0.92.3 (2405546, 2018-03-11)">
  <metadata
     id="metadata2301">
    <rdf:RDF>
      <cc:Work
         rdf:about="">
        <dc:format>image/svg+xml</dc:format>
        <dc:type
           rdf:resource="http://purl.org/dc/dcmitype/StillImage" />
        <dc:title />
      </cc:Work>
    </rdf:RDF>
  </metadata>
  <defs
     id="defs2299" />
  <sodipodi:namedview
     pagecolor="#ffffff"
     bordercolor="#666666"
     borderopacity="1"
     objecttolerance="10"
     gridtolerance="10"
     guidetolerance="10"
     inkscape:pageopacity="0"
     inkscape:pageshadow="2"
     inkscape:window-width="1920"
     inkscape:window-height="1046"
     id="namedview2297"
     showgrid="false"
     inkscape:zoom="2.6074563"
     inkscape:cx="-53.998176"
     inkscape:cy="120.6589"
     inkscape:window-x="-11"
     inkscape:window-y="-11"
     inkscape:window-maximized="1"
     inkscape:current-layer="svg2295" />
  <path
     style="fill:#f9f7ee;fill-opacity:1;stroke:#000000;stroke-width:1.99999988;stroke-linecap:butt;stroke-linejoin:miter;stroke-miterlimit:4;stroke-dasharray:none;stroke-opacity:0.34567901;paint-order:stroke fill markers"
     d="m 45.086697,14.364336 c -18.119501,9.16615 -3.649131,31.24688 -9.205789,47.911458 -5.224986,15.669884 -12.177328,26.097034 -8.866261,39.905166 1.257161,5.24275 10.598101,6.64579 12.122861,0.14362 2.696923,-11.50077 -0.214869,-14.976825 4.52801,-26.980576 4.085429,-10.33981 11.802402,-11.325797 18.748408,-9.966912 6.42744,1.257436 13.967649,6.639184 12.594086,15.080689 -2.072871,12.73924 -7.157065,15.005107 -10.667546,26.099089 -2.01484,6.36739 9.411743,10.39537 10.933806,5.21423 C 78.960749,99.222253 82.720141,95.180118 86.270222,78.457565 89.912301,61.301658 113.41627,47.643144 99.890299,27.099424 89.876408,11.889976 84.863493,31.739352 70.680133,28.443467 53.210283,24.383878 61.368134,6.1280097 45.086697,14.364336 Z"
     id="path830"
     inkscape:connector-curvature="0"
     sodipodi:nodetypes="sssssasssssss" />
  <path
     style="fill:#ffe4de;fill-opacity:1;stroke:none;stroke-width:1.99999988;stroke-linecap:butt;stroke-linejoin:miter;stroke-miterlimit:4;stroke-dasharray:none;stroke-opacity:0.34567901;paint-order:stroke fill markers"
     d="M 36.175781 61.273438 C 36.080894 61.608176 35.991101 61.944773 35.880859 62.275391 C 30.655873 77.945275 23.702605 88.373509 27.013672 102.18164 C 28.270833 107.42439 37.611959 108.82639 39.136719 102.32422 C 41.833642 90.823449 38.923137 87.347501 43.666016 75.34375 C 44.557035 73.08867 45.629488 71.303173 46.820312 69.865234 A 42.372879 36.542374 7.2432575 0 1 36.175781 61.273438 z M 88.042969 73.101562 A 42.372879 36.542374 7.2432575 0 1 74.916016 76.099609 C 75.207698 77.443845 75.261636 78.897109 75.007812 80.457031 C 72.934941 93.196271 67.850325 95.462659 64.339844 106.55664 C 62.325004 112.92403 73.751374 116.95262 75.273438 111.77148 C 78.959914 99.222637 82.71945 95.179584 86.269531 78.457031 C 86.656185 76.635711 87.276678 74.856471 88.042969 73.101562 z "
     id="path814" />
</svg>

<svg xmlns="http://www.w3.org/2000/svg" width="128" height="128"><path d="M45.087 14.364c-18.12 9.166-3.65 31.247-9.206 47.912-5.225 15.67-12.177 26.097-8.866 39.905 1.257 5.243 10.598 6.646 12.123.144 2.696-11.501-.215-14.977 4.528-26.981 4.085-10.34 11.802-11.326 18.748-9.967 6.427 1.258 13.968 6.64 12.594 15.08-2.073 12.74-7.157 15.006-10.668 26.1-2.014 6.367 9.412 10.395 10.934 5.214 3.687-12.549 7.446-16.59 10.996-33.313 3.642-17.156 27.146-30.815 13.62-51.359-10.014-15.209-15.027 4.64-29.21 1.344-17.47-4.06-9.312-22.315-25.593-14.079z" fill="#f9f7ee" stroke="#000" stroke-width="2" stroke-opacity=".346" paint-order="stroke fill markers"/><path d="M36.176 61.273c-.095.335-.185.672-.295 1.002-5.225 15.67-12.178 26.099-8.867 39.907 1.257 5.242 10.598 6.644 12.123.142 2.697-11.5-.214-14.976 4.529-26.98.891-2.255 1.963-4.04 3.154-5.479a42.373 36.542 7.243 0 1-10.644-8.592zm51.867 11.829A42.373 36.542 7.243 0 1 74.916 76.1c.292 1.344.346 2.797.092 4.357-2.073 12.74-7.158 15.006-10.668 26.1-2.015 6.367 9.411 10.396 10.933 5.214C78.96 99.223 82.72 95.18 86.27 78.457c.386-1.821 1.007-3.6 1.773-5.355z" fill="#ffe4de" stroke-width="2" stroke-opacity=".346" paint-order="stroke fill markers"/></svg>
